!!!OTL: Der arme Bauer O, ich armer Lothringer Bur,
!!!ARE: Europa, Mitteleuropa, Lothringen, Bettringen b. Holvingen
!!    (Kr. Forbach)
!!!SCT: D0061
!!!YEM: Copyright 1995, estate of Helmut Schaffrath.
**kern
*ICvox
*Ivox
*M3/4
*k[b-e-]
*g:
{8dd
8dd
=1
4dd
8dd
8dd
8b-
8g
=2
2a}
{8dd
8ee-
=3
4.dd
8dd
8b-
8g
=4
4a
8r}
{8cc
8cc
8cc
=5
4.cc
8cc
8dd
8ee-
=6
4dd
8r}
{8cc
8b-
8a
=7
4g
4a
8b-
8a
=8
4.g
8r}
==
!!!AGN: Bauern - Klage
!! Inzipit = Variante zum Lied
!!!ONB: ESAC (Essen Associative Code) Database: DVA
!!!AMT: simple triple
!!!AIN: vox
!!!EED: Helmut Schaffrath
!!!EEV: 1.0
*-
